static/images/tech-icons/dark/chargebee-logo-black.svg

<svg height="35" viewBox="0 0 113 35" width="113" xmlns="http://www.w3.org/2000/svg" xmlns:xlink="http://www.w3.org/1999/xlink"><mask id="a" fill="#fff"/><path d="m106.715514 11.4316629c.377809 0 .607611.2636571.701089.6185201.20059.7513253-.77704 2.5822778-4.19485 4.685676.075951-2.4379498 1.546291-5.3041961 3.493761-5.3041961m-10.4618086 0c.5706087 0 .6076106.5632498.6348752.7649963.1441128 1.0634172-.8354646 2.9474918-4.0410003 4.0280956.3427547-2.252804 1.818937-4.7930919 3.4061251-4.7930919m-13.8250897-8.86610685c1.0827934 0 .194747 3.70018414-3.2483799 8.88251215.7887253-6.86778083 1.9279953-8.88251215 3.2483799-8.88251215m-11.8854094 8.86610685c.3213325 0 .4011788.2556497.4440231.4005635.1382704.4736064-.3583345 2.338932-4.0741072 4.946599.2122742-2.4879471 1.7235109-5.3471625 3.6300841-5.3471625m-15.3947505 21.0046872c-.3855991 0-.6485075-.24608-.6485075-.730428 0-2.2283913 3.4703916-5.2731432 3.5073935-5.2829083-.4732352 2.9959265-1.6845616 6.0133363-2.858886 6.0133363m57.2789882-14.7034764c-.586189-.3896267-1.376861-.2300653-1.77025.3556442-.064267.0958931-1.610558 2.3563139-4.305857 2.3563139-1.059423 0-1.861781-.3281067-2.383703-.976508-.035054-.0429664-.068161-.0898388-.103216-.13593.013632-.005859.02337-.0124993.035055-.0191395 6.33512-3.6544836 6.298118-6.7593884 5.98847-7.9245578-.371967-1.39445343-1.6164-2.29537972-3.172429-2.29537972-3.620346 0-6.052737 4.05368002-6.052737 7.83940632 0 .4812231.044792.9419396.120744 1.3831259-1.2833831.9517047-3.2775924 2.1289828-5.028368 2.1289828-1.0204742 0-1.7877774-.3027175-2.2785399-.9042465-.1752723-.2132693-.3096477-.4521232-.4089687-.6995703 4.8511478-1.4110541 6.6895595-4.5163495 6.3526472-6.9914067-.2200641-1.6229563-1.4274955-2.75629152-2.9348373-2.75629152-3.3749655 0-5.8151455 3.55507502-6.2104819 7.08222202-.6446125-.0673791-1.230801-.2577982-1.748828-.5786787.0856886-.5595391.128533-1.1091178.128533-1.6313543 0-1.1495452-.2181167-2.1510518-.6329278-2.8976898-.5647663-1.0212321-1.4820247-1.58370072-2.5823452-1.58370072-.5900834 0-1.1197953.32576308-1.4177582.87221692-.6270853 1.1495453-.2259065 3.3806708.9289432 5.1899448.2239591.3501758.4693403.6733999.7322487.9690865-.6309802 2.0407065-1.9377326 3.9607165-3.6476113 3.9607165-.7673032 0-1.3418068-.2382679-1.8091996-.7480051-.6718772-.7337481-1.1022681-2.039144-1.2424859-3.6896379 4.7596167-5.9637297 7.0712636-11.79738851 5.7567213-14.56012496-.4479181-.93955695-1.2853302-1.47858937-2.2980146-1.47858937-3.2912243 0-5.2503791 4.27202723-5.9904177 13.05942753-.0467393.5376653-.0798463 1.1864572-.0740039 1.8924725-1.7585654 2.3869762-4.6388736 5.4932481-7.2406935 5.4932481-.7419861 0-1.2853302-.251939-1.6553495-.7694883-.033107-.0429663-.062319-.0898387-.0915311-.1367111.0292121-.0175772.0603716-.0351543.0895836-.0546845 6.3857542-4.139808 6.2942231-7.237682 5.9592583-8.3780481-.3661244-1.24094633-1.4761823-2.01258296-2.8958879-2.01258296-3.7157728 0-6.2124294 4.27964396-6.2124294 8.27707716 0 .3616986.0233697.712265.066214 1.0501367-1.1723769.8462419-2.1441645 1.6004966-3.0770026 2.3309246.1402178-1.0936889.3466496-2.4752525.5783986-4.5485743v-.0007812c.0545291-.4185313.1012684-.7616762.1246381-.9300262.2083792-1.5149545-2.2688026-1.8284136-2.5375535-.1376876-.2765407 1.7405278-1.0243692 5.3416941-3.0614228 5.3416941-1.2308011 0-1.8773611-1.3725797-1.7585655-3.368562.1889046-3.1390827 1.8773611-5.6987055 3.9708914-5.6987055.7186164 0 1.0925307.7708554 1.0925307.7708554.6601923 1.2050109 2.7128257.1878802 2.2785399-1.0866581-.1927995-.5693041-.8841514-1.98309242-3.2698022-1.98309242-4.901782 0-6.4169136 4.97608952-6.6350303 8.26047652-.0370019.5403995-.0253171 1.062636.0233697 1.5594833-.683562.8353049-1.4976045 1.5462028-2.2882773 1.5462028-.7770405 0-1.267803-.8671391-.97763-2.870543.2765408-1.9104402.4712878-3.4894537.6017683-4.4138162.5939783-4.17886832-4.6193989-4.06403098-4.6193989-4.06403098s-.0564766-2.43736399-2.0643182-2.43736399c-1.0282642 0-1.9396801.80093187-1.9396801 2.31139446 0 1.39640641 1.1412174 2.08289161 1.1412174 2.08289161l.0058424.0011718c-.2531711 2.1627699-1.2658555 9.3902963-3.5132359 9.3902963-1.0087895 0-1.0769509-1.093689-.9893148-1.8618102.1226906-1.0673232.3154902-2.8750349.3797567-3.3421963.2083793-1.5149545-2.2707501-1.8284136-2.5375534-.1376876-.2765408 1.7405278-1.0243693 5.3416941-3.0614229 5.3416941-1.2308011 0-1.8793086-1.5526478-1.7799876-3.4210982.1694299-3.2015791 1.8987833-5.6461693 3.9923135-5.6461693.7186165 0 1.0925307.7708554 1.0925307.7708554.5452916 1.1936834 2.7011409.3353329 2.2785399-1.0866581-.1850096-.6278946-.8841514-1.98309242-3.2698021-1.98309242-4.9037295 0-6.4188612 4.97608952-6.6350304 8.26047652-.0350544.5081748-.0253171.9993583.0155798 1.4690587-.7010892.9550248-1.5462912 1.6366274-2.3428064 1.6366274-.7264063 0-1.2833828-.3749791-1.1490073-2.0280119.062319-.7720272.9581552-6.0494671.8997311-7.0121087-.099321-1.60069188-.8237798-2.30631656-2.6037674-2.30631656-1.8715187 0-3.2853819.96478986-3.8789708 1.58116176 0 0 .8857094-6.65958931 1.0531918-7.93822889.1772198-1.33994476-2.3916879-1.35347916-2.5593651-.01113219-.0726406.58199877-.7583448 5.85846214-1.3938043 10.72947938-1.4317799 3.1806819-4.3335102 8.0827521-8.62923959 8.0827521-8.13847718 0-4.38278126-17.7900229 3.23007379-17.7900229 1.784272 0 .9873673 2.85765303-.2091583 4.60032922-.8543551 1.24465711 1.298573 2.67621788 2.4876982.66363484 3.2863556-5.5614084.5168585-7.64097985-2.0863246-7.64097985-11.31421656 0-15.51354615 22.62569049-3.72784713 22.62569049 3.88013923 0 6.47670103-2.1873779 8.14977253-4.5388092-.1752723 1.335863-.2954312 2.2459684-.3199693 2.4158808-.1996157 1.3964065 2.4020095 1.2811785 2.5389166.115228.0872467-.7440991.4736247-3.8663858.8044999-6.2484795.1890993-1.361838 1.8491227-3.8677529 3.7498535-3.8677529.4498656 0 .7419861.4464595.6855094.8290553-.0681614.4443112-.8763615 6.3674181-.8218323 7.2501814.1538501 2.4705652 1.914363 3.0447519 3.5930822 3.0447519 1.3281745 0 2.3914931-.6308241 3.2853819-1.6210033.5939783.9960382 1.5131842 1.6151443 2.7517751 1.6151443 2.8335689 0 3.8111988-2.0467608 3.8111988-2.0467608s.3388598 2.0272306 2.7809872 2.0272306c4.9485213 0 6.103371-8.6571341 6.3487522-11.5434964.2901731.0113275 2.0390011.1189387 2.3272267 1.1007198.2765407.9411584-.6017682 3.9599353-.6738246 7.067965-.037002 1.6366274.5628188 3.3943418 3.1471115 3.3943418 1.5774507 0 2.8140942-.726522 3.7118778-1.5487417.5939784.9550248 1.4976045 1.5487417 2.7069834 1.5487417 1.3943885 0 2.3389114-.4491937 2.9387322-.9042464-.0389494.2675632-.0778988.5312203-.1149007.7968305-.0019475.0175772-.003895.0332013-.0058424.0507784.0058424-.0507784-6.525972 4.6774734-6.525972 9.145974 0 1.7420903.8062525 2.8846047 2.8647283 2.8846047 4.0955295 0 5.361385-5.480163 5.9651007-10.0170192.029212-.2148317.0564766-.4179454.0837412-.613247.6407176-.486301 1.2366435-.9530718 1.8150421-1.4061715.8510444-.6659785 1.6728767-1.3085208 2.6193471-2.0077005.0467393.0722616.0915311.1464762.1402179.2167848.8627292 1.2011048 2.1519543 1.835835 3.7313525 1.835835 2.9640494 0 5.7060871-2.2811227 7.6827692-4.5116622.2979629 1.1016963.7731456 2.1465599 1.524869 2.9648736.944523 1.0311924 2.2201158 1.5760839 3.6904557 1.5760839 2.8316214 0 4.7966186-2.2654986 5.813198-4.8983595.7750931.3607221 1.6261375.5683277 2.5336585.6165672.1986419.9265108.5745036 1.7467775 1.1197952 2.412756.6874569.8378438 1.984472 1.839741 4.2532745 1.839741 2.2551703 0 4.492813-1.2089169 5.99626-2.2440154.074004.1074159.14606.2128788.225907.3124826.708879.8808102 2.042896 1.9315328 4.374017 1.9315328 4.097477 0 6.346805-3.3650465 6.440284-3.5095697.385599-.5882485.222011-1.376681-.364177-1.7666983" mask="url(#a)"/></svg>

<?xml version="1.0" encoding="UTF-8"?>
<svg width="113px" height="35px" viewBox="0 0 113 35" version="1.1" xmlns="http://www.w3.org/2000/svg" xmlns:xlink="http://www.w3.org/1999/xlink">
    <title>chargebee-logo-black</title>
    <defs>
        <polyline id="path-1" points="0 0 113 0 113 35 0 35"></polyline>
    </defs>
    <g id="DV-Case" stroke="none" stroke-width="1" fill="none" fill-rule="evenodd">
        <g id="Desktop-HD" transform="translate(-481.000000, -870.000000)">
            <g id="chargebee-logo-black" transform="translate(481.000000, 870.000000)">
                <mask id="mask-2" fill="white">
                    <use xlink:href="#path-1"></use>
                </mask>
                <g id="path-1"></g>
                <path d="M106.715514,11.4316629 C107.093323,11.4316629 107.323125,11.69532 107.416603,12.050183 C107.617193,12.8015083 106.639563,14.6324608 103.221753,16.735859 C103.297704,14.2979092 104.768044,11.4316629 106.715514,11.4316629 M96.2537054,11.4316629 C96.8243141,11.4316629 96.861316,11.9949127 96.8885806,12.1966592 C97.0326934,13.2600764 96.053116,15.144151 92.8475803,16.2247548 C93.190335,13.9719508 94.6665173,11.4316629 96.2537054,11.4316629 M82.4286157,2.56555605 C83.5114091,2.56555605 82.6233627,6.26574019 79.1802358,11.4480682 C79.9689611,4.58028737 81.1082311,2.56555605 82.4286157,2.56555605 M70.5432063,11.4316629 C70.8645388,11.4316629 70.9443851,11.6873126 70.9872294,11.8322264 C71.1254998,12.3058328 70.6288949,14.1711584 66.9131222,16.7788254 C67.1253964,14.2908783 68.6366331,11.4316629 70.5432063,11.4316629 M55.1484558,32.4363501 C54.7628567,32.4363501 54.4999483,32.1902701 54.4999483,31.7059221 C54.4999483,29.4775308 57.9703399,26.4327789 58.0073418,26.4230138 C57.5341066,29.4189403 56.3227802,32.4363501 55.1484558,32.4363501 M112.427444,17.7328737 C111.841255,17.343247 111.050583,17.5028084 110.657194,18.0885179 C110.592927,18.184411 109.046636,20.4448318 106.351337,20.4448318 C105.291914,20.4448318 104.489556,20.1167251 103.967634,19.4683238 C103.93258,19.4253574 103.899473,19.378485 103.864418,19.3323938 C103.87805,19.3265348 103.887788,19.3198945 103.899473,19.3132543 C110.234593,15.6587707 110.197591,12.5538659 109.887943,11.3886965 C109.515976,9.99424307 108.271543,9.09331678 106.715514,9.09331678 C103.095168,9.09331678 100.662777,13.1469968 100.662777,16.9327231 C100.662777,17.4139462 100.707569,17.8746627 100.783521,18.315849 C99.5001379,19.2675537 97.5059286,20.4448318 95.755153,20.4448318 C94.7346788,20.4448318 93.9673756,20.1421143 93.4766131,19.5405853 C93.3013408,19.327316 93.1669654,19.0884621 93.0676444,18.841015 C97.9187922,17.4299609 99.7572039,14.3246655 99.4202916,11.8496083 C99.2002275,10.226652 97.9927961,9.09331678 96.4854543,9.09331678 C93.1104888,9.09331678 90.6703088,12.6483918 90.2749724,16.1755388 C89.6303599,16.1081597 89.0441714,15.9177406 88.5261444,15.5968601 C88.611833,15.037321 88.6546774,14.4877423 88.6546774,13.9655058 C88.6546774,12.8159606 88.4365607,11.814454 88.0217496,11.067816 C87.4569833,10.0465839 86.5397249,9.48411528 85.4394044,9.48411528 C84.849321,9.48411528 84.3196091,9.80987836 84.0216462,10.3563322 C83.3945609,11.5058775 83.7957397,13.737003 84.9505894,15.546277 C85.1745485,15.8964528 85.4199297,16.2196769 85.6828381,16.5153635 C85.0518579,18.55607 83.7451055,20.47608 82.0352268,20.47608 C81.2679236,20.47608 80.69342,20.2378121 80.2260272,19.7280749 C79.55415,18.9943268 79.1237591,17.6889309 78.9835413,16.038437 C83.743158,10.0747073 86.0548049,4.24104849 84.7402626,1.47831204 C84.2923445,0.538755092 83.4549324,-0.000277328274 82.442248,-0.000277328274 C79.1510237,-0.000277328274 77.1918689,4.2717499 76.4518303,13.0591502 C76.405091,13.5968155 76.371984,14.2456074 76.3778264,14.9516227 C74.619261,17.3385989 71.7389528,20.4448708 69.1371329,20.4448708 C68.3951468,20.4448708 67.8518027,20.1929318 67.4817834,19.6753825 C67.4486764,19.6324162 67.4194644,19.5855438 67.3902523,19.5386714 C67.4194644,19.5210942 67.4506239,19.5035171 67.4798359,19.4839869 C73.8655901,15.3441789 73.774059,12.2463049 73.4390942,11.1059388 C73.0729698,9.86499247 71.9629119,9.09335584 70.5432063,9.09335584 C66.8274335,9.09335584 64.3307769,13.3729998 64.3307769,17.370433 C64.3307769,17.7321316 64.3541466,18.082698 64.3969909,18.4205697 C63.224614,19.2668116 62.2528264,20.0210663 61.3199883,20.7514943 C61.4602061,19.6578054 61.6666379,18.2762418 61.8983869,16.20292 L61.8983869,16.2021388 C61.952916,15.7836075 61.9996553,15.4404626 62.023025,15.2721126 C62.2314042,13.7571581 59.7542224,13.443699 59.4854715,15.134425 C59.2089308,16.8749528 58.4611023,20.4761191 56.4240487,20.4761191 C55.1932476,20.4761191 54.5466876,19.1035394 54.6654832,17.1075571 C54.8543878,13.9684744 56.5428443,11.4088516 58.6363746,11.4088516 C59.354991,11.4088516 59.7289053,12.179707 59.7289053,12.179707 C60.3890976,13.3847179 62.441731,12.3675872 62.0074452,11.0930489 C61.8146457,10.5237448 61.1232938,9.10995648 58.737643,9.10995648 C53.835861,9.10995648 52.3207294,14.086046 52.1026127,17.370433 C52.0656108,17.9108325 52.0772956,18.433069 52.1259824,18.9299163 C51.4424204,19.7652212 50.6283779,20.4761191 49.8377051,20.4761191 C49.0606646,20.4761191 48.5699021,19.60898 48.8600751,17.6055761 C49.1366159,15.6951359 49.3313629,14.1161224 49.4618434,13.1917599 C50.0558217,9.01289158 44.8424445,9.12772892 44.8424445,9.12772892 C44.8424445,9.12772892 44.7859679,6.69036493 42.7781263,6.69036493 C41.7498621,6.69036493 40.8384462,7.4912968 40.8384462,9.00175939 C40.8384462,10.3981658 41.9796636,11.084651 41.9796636,11.084651 L41.985506,11.0858228 C41.7323349,13.2485927 40.7196505,20.4761191 38.4722701,20.4761191 C37.4634806,20.4761191 37.3953192,19.3824301 37.4829553,18.6143089 C37.6056459,17.5469857 37.7984455,15.739274 37.862712,15.2721126 C38.0710913,13.7571581 35.5919619,13.443699 35.3251586,15.134425 C35.0486178,16.8749528 34.3007893,20.4761191 32.2637357,20.4761191 C31.0329346,20.4761191 30.3844271,18.9234713 30.4837481,17.0550209 C30.653178,13.8534418 32.3825314,11.4088516 34.4760616,11.4088516 C35.1946781,11.4088516 35.5685923,12.179707 35.5685923,12.179707 C36.1138839,13.3733904 38.2697332,12.5150399 37.8471322,11.0930489 C37.6621226,10.4651543 36.9629808,9.10995648 34.5773301,9.10995648 C29.6736006,9.10995648 28.1584689,14.086046 27.9422997,17.370433 C27.9072453,17.8786078 27.9169826,18.3697913 27.9578795,18.8394917 C27.2567903,19.7945165 26.4115883,20.4761191 25.6150731,20.4761191 C24.8886668,20.4761191 24.3316903,20.10114 24.4660658,18.4481072 C24.5283848,17.67608 25.424221,12.3986401 25.3657969,11.4359985 C25.2664759,9.83530662 24.5420171,9.12968194 22.7620295,9.12968194 C20.8905108,9.12968194 19.4766476,10.0944718 18.8830587,10.7108437 C18.8830587,10.7108437 19.7687681,4.05125439 19.9362505,2.77261481 C20.1134703,1.43267005 17.5445626,1.41913565 17.3768854,2.76148262 C17.3042448,3.34348139 16.6185406,8.61994476 15.9830811,13.490962 C14.5513012,16.6716439 11.6495709,21.5737141 7.35384151,21.5737141 C-0.784635668,21.5737141 2.97106025,3.7836912 10.5839153,3.7836912 C12.3681873,3.7836912 11.5712826,6.64134423 10.374757,8.38402042 C9.5204019,9.62867753 11.67333,11.0602383 12.8624552,9.04765526 C16.1488108,3.48624686 13.3793137,1.40667541 10.7761306,1.40667541 C-0.538085964,1.40667541 -4.73741555,24.0323659 7.04828347,24.0323659 C10.9284227,24.0323659 13.5249845,21.844988 15.198056,19.4935567 C15.0227837,20.8294197 14.9026248,21.7395251 14.8780867,21.9094375 C14.678471,23.305844 17.2800962,23.190616 17.4170033,22.0246655 C17.50425,21.2805664 17.890628,18.1582797 18.2215032,15.776186 C18.4106025,14.414348 20.0706259,11.9084331 21.9713567,11.9084331 C22.4212223,11.9084331 22.7133428,12.3548926 22.6568661,12.7374884 C22.5887047,13.1817996 21.7805046,19.1049065 21.8350338,19.9876698 C21.9888839,22.458235 23.7493968,23.0324217 25.428116,23.0324217 C26.7562905,23.0324217 27.8196091,22.4015976 28.7134979,21.4114184 C29.3074762,22.4074566 30.2266821,23.0265627 31.465273,23.0265627 C34.2988419,23.0265627 35.2764718,20.9798019 35.2764718,20.9798019 C35.2764718,20.9798019 35.6153316,23.0070325 38.057459,23.0070325 C43.0059803,23.0070325 44.16083,14.3498984 44.4062112,11.4635361 C44.6963843,11.4748636 46.4452123,11.5824748 46.7334379,12.5642559 C47.0099786,13.5054143 46.1316697,16.5241912 46.0596133,19.6322209 C46.0226113,21.2688483 46.6224321,23.0265627 49.2067248,23.0265627 C50.7841755,23.0265627 52.020819,22.3000407 52.9186026,21.477821 C53.512581,22.4328458 54.4162071,23.0265627 55.625586,23.0265627 C57.0199745,23.0265627 57.9644974,22.577369 58.5643182,22.1223163 C58.5253688,22.3898795 58.4864194,22.6535366 58.4494175,22.9191468 C58.44747,22.936724 58.4455225,22.9523481 58.4435751,22.9699252 C58.4494175,22.9191468 51.9176031,27.6473986 51.9176031,32.1158992 C51.9176031,33.8579895 52.7238556,35.0005039 54.7823314,35.0005039 C58.8778609,35.0005039 60.1437164,29.5203409 60.7474321,24.9834847 C60.7766441,24.768653 60.8039087,24.5655393 60.8311733,24.3702377 C61.4718909,23.8839367 62.0678168,23.4171659 62.6462154,22.9640662 C63.4972598,22.2980877 64.3190921,21.6555454 65.2655625,20.9563657 C65.3123018,21.0286273 65.3570936,21.1028419 65.4057804,21.1731505 C66.2685096,22.3742553 67.5577347,23.0089855 69.1371329,23.0089855 C72.1011823,23.0089855 74.84322,20.7278628 76.8199021,18.4973233 C77.117865,19.5990196 77.5930477,20.6438832 78.3447711,21.4621969 C79.2892941,22.4933893 80.5648869,23.0382808 82.0352268,23.0382808 C84.8668482,23.0382808 86.8318454,20.7727822 87.8484248,18.1399213 C88.6235179,18.5006434 89.4745623,18.708249 90.3820833,18.7564885 C90.5807252,19.6829993 90.9565869,20.503266 91.5018785,21.1692445 C92.1893354,22.0070883 93.4863505,23.0089855 95.755153,23.0089855 C98.0103233,23.0089855 100.247966,21.8000686 101.751413,20.7649701 C101.825417,20.872386 101.897473,20.9778489 101.97732,21.0774527 C102.686199,21.9582629 104.020216,23.0089855 106.351337,23.0089855 C110.448814,23.0089855 112.698142,19.643939 112.791621,19.4994158 C113.17722,18.9111673 113.013632,18.1227348 112.427444,17.7327175" id="Fill-1" fill="#000000" fill-rule="nonzero" mask="url(#mask-2)"></path>
            </g>
        </g>
    </g>
</svg>
